Numix/16/status/indicator-keyboard-Ml.svg

<?xml version="1.0" encoding="UTF-8" standalone="no"?>
<svg
   xmlns:dc="http://purl.org/dc/elements/1.1/"
   xmlns:cc="http://creativecommons.org/ns#"
   xmlns:rdf="http://www.w3.org/1999/02/22-rdf-syntax-ns#"
   xmlns:svg="http://www.w3.org/2000/svg"
   xmlns="http://www.w3.org/2000/svg"
   xmlns:sodipodi="http://sodipodi.sourceforge.net/DTD/sodipodi-0.dtd"
   xmlns:inkscape="http://www.inkscape.org/namespaces/inkscape"
   viewBox="0 0 16 16"
   id="svg2"
   version="1.1"
   inkscape:version="0.91 r13725"
   sodipodi:docname="indicator-keyboard-Ml.svg">
  <metadata
     id="metadata13">
    <rdf:RDF>
      <cc:Work
         rdf:about="">
        <dc:format>image/svg+xml</dc:format>
        <dc:type
           rdf:resource="http://purl.org/dc/dcmitype/StillImage" />
      </cc:Work>
    </rdf:RDF>
  </metadata>
  <defs
     id="defs11" />
  <sodipodi:namedview
     pagecolor="#ffffff"
     bordercolor="#666666"
     borderopacity="1"
     objecttolerance="10"
     gridtolerance="10"
     guidetolerance="10"
     inkscape:pageopacity="0"
     inkscape:pageshadow="2"
     inkscape:window-width="640"
     inkscape:window-height="480"
     id="namedview9"
     showgrid="false"
     inkscape:zoom="14.75"
     inkscape:cx="8"
     inkscape:cy="8"
     inkscape:window-x="65"
     inkscape:window-y="24"
     inkscape:window-maximized="0"
     inkscape:current-layer="svg2" />
  <path
     style="fill:#ececec;fill-opacity:1"
     d="M 1.5996094 0 C 0.71320937 2.9605947e-16 0 0.71320937 0 1.5996094 L 0 14.400391 C 2.9605947e-16 15.286791 0.71320937 16 1.5996094 16 L 14.400391 16 C 15.286791 16 16 15.286791 16 14.400391 L 16 1.5996094 C 16 0.71320937 15.286791 0 14.400391 0 L 1.5996094 0 z M 11.898438 4.4667969 L 11.898438 10.318359 C 11.898438 10.462359 11.909594 10.577969 11.933594 10.667969 C 11.963594 10.751969 12.006547 10.821 12.060547 10.875 C 12.114547 10.923 12.183578 10.960375 12.267578 10.984375 C 12.357578 11.008375 12.462031 11.028875 12.582031 11.046875 L 12.501953 11.533203 C 12.303953 11.527203 12.128516 11.499172 11.978516 11.451172 C 11.834516 11.409172 11.711375 11.343906 11.609375 11.253906 C 11.513375 11.157906 11.438766 11.036578 11.384766 10.892578 C 11.336766 10.742578 11.3125 10.557938 11.3125 10.335938 L 11.3125 4.5761719 L 11.898438 4.4667969 z M 3.859375 5.2148438 L 4.3984375 5.2148438 C 4.5784375 5.5148438 4.7706094 5.8618125 4.9746094 6.2578125 C 5.1786094 6.6478125 5.380125 7.0564219 5.578125 7.4824219 C 5.782125 7.9024219 5.9761094 8.320375 6.1621094 8.734375 C 6.3541094 9.142375 6.5220156 9.5098438 6.6660156 9.8398438 C 6.8100156 9.5098438 6.9761094 9.142375 7.1621094 8.734375 C 7.3541094 8.320375 7.5480937 7.9024219 7.7460938 7.4824219 C 7.9500937 7.0564219 8.155375 6.6478125 8.359375 6.2578125 C 8.563375 5.8618125 8.7555469 5.5148438 8.9355469 5.2148438 L 9.4472656 5.2148438 C 9.5492656 6.1628438 9.6332187 7.1553594 9.6992188 8.1933594 C 9.7712188 9.2313594 9.8346719 10.317172 9.8886719 11.451172 L 9.2675781 11.451172 C 9.2315781 10.485172 9.1905781 9.5654532 9.1425781 8.6894531 C 9.1005781 7.8074531 9.0408906 6.9902344 8.9628906 6.2402344 C 8.9148906 6.3242344 8.8383281 6.467875 8.7363281 6.671875 C 8.6343281 6.875875 8.5187187 7.1128125 8.3867188 7.3828125 C 8.2547187 7.6528125 8.1166563 7.9438594 7.9726562 8.2558594 C 7.8286563 8.5618594 7.6868281 8.86225 7.5488281 9.15625 C 7.4108281 9.44425 7.285875 9.7110313 7.171875 9.9570312 C 7.063875 10.203031 6.9779688 10.400781 6.9179688 10.550781 L 6.3691406 10.550781 C 6.3091406 10.400781 6.223375 10.203031 6.109375 9.9570312 C 6.001375 9.7110313 5.8782344 9.44425 5.7402344 9.15625 C 5.6022344 8.86225 5.4604062 8.5618594 5.3164062 8.2558594 C 5.1724062 7.9438594 5.0343438 7.6528125 4.9023438 7.3828125 C 4.7703438 7.1128125 4.6547344 6.875875 4.5527344 6.671875 C 4.4507344 6.467875 4.3741719 6.3242344 4.3261719 6.2402344 C 4.2481719 6.9902344 4.1866719 7.8074531 4.1386719 8.6894531 C 4.0966719 9.5654532 4.0574844 10.485172 4.0214844 11.451172 L 3.4179688 11.451172 C 3.4719688 10.317172 3.5316562 9.2313594 3.5976562 8.1933594 C 3.6696562 7.1553594 3.757375 6.1628437 3.859375 5.2148438 z "
     id="path4" />
</svg>

<svg xmlns="http://www.w3.org/2000/svg" viewBox="0 0 16 16">
 <path d="m 1.6 0 c -0.886 0 -1.6 0.713 -1.6 1.6 l 0 12.801 c 0 0.886 0.713 1.6 1.6 1.6 l 12.801 0 c 0.886 0 1.6 -0.713 1.6 -1.6 l 0 -12.801 c 0 -0.886 -0.713 -1.6 -1.6 -1.6 l -12.801 0 z m 10.299 4.467 l 0 5.852 c 0 0.144 0.011 0.26 0.035 0.35 c 0.03 0.084 0.073 0.153 0.127 0.207 c 0.054 0.048 0.123 0.085 0.207 0.109 c 0.09 0.024 0.194 0.044 0.314 0.063 l -0.08 0.486 c -0.198 -0.006 -0.373 -0.034 -0.523 -0.082 c -0.144 -0.042 -0.267 -0.107 -0.369 -0.197 c -0.096 -0.096 -0.171 -0.217 -0.225 -0.361 c -0.048 -0.15 -0.072 -0.335 -0.072 -0.557 l 0 -5.76 l 0.586 -0.109 z m -8.04 0.748 l 0.539 0 c 0.18 0.3 0.372 0.647 0.576 1.043 c 0.204 0.39 0.406 0.799 0.604 1.225 c 0.204 0.42 0.398 0.838 0.584 1.252 c 0.192 0.408 0.36 0.775 0.504 1.105 c 0.144 -0.33 0.31 -0.697 0.496 -1.105 c 0.192 -0.414 0.386 -0.832 0.584 -1.252 c 0.204 -0.426 0.409 -0.835 0.613 -1.225 c 0.204 -0.396 0.396 -0.743 0.576 -1.043 l 0.512 0 c 0.102 0.948 0.186 1.941 0.252 2.979 c 0.072 1.038 0.135 2.124 0.189 3.258 l -0.621 0 c -0.036 -0.966 -0.077 -1.886 -0.125 -2.762 c -0.042 -0.882 -0.102 -1.699 -0.18 -2.449 c -0.048 0.084 -0.125 0.228 -0.227 0.432 c -0.102 0.204 -0.218 0.441 -0.35 0.711 c -0.132 0.27 -0.27 0.561 -0.414 0.873 c -0.144 0.306 -0.286 0.606 -0.424 0.9 c -0.138 0.288 -0.263 0.555 -0.377 0.801 c -0.108 0.246 -0.194 0.444 -0.254 0.594 l -0.549 0 c -0.06 -0.15 -0.146 -0.348 -0.26 -0.594 c -0.108 -0.246 -0.231 -0.513 -0.369 -0.801 c -0.138 -0.294 -0.28 -0.594 -0.424 -0.9 c -0.144 -0.312 -0.282 -0.603 -0.414 -0.873 c -0.132 -0.27 -0.248 -0.507 -0.35 -0.711 c -0.102 -0.204 -0.179 -0.348 -0.227 -0.432 c -0.078 0.75 -0.139 1.567 -0.188 2.449 c -0.042 0.876 -0.081 1.796 -0.117 2.762 l -0.604 0 c 0.054 -1.134 0.114 -2.22 0.18 -3.258 c 0.072 -1.038 0.16 -2.031 0.262 -2.979 z" style="fill:#ececec;fill-opacity:1"/>
</svg>
